packages/core/src/svgs/tokens/branded/FEAR.svg

<svg width="24" height="24" viewBox="0 0 24 24" fill="none" xmlns="http://www.w3.org/2000/svg">
<path fill-rule="evenodd" clip-rule="evenodd" d="M4.90008 8.52532C5.04008 8.13533 5.27508 7.48034 5.82007 7.27533C6.41506 7.04534 7.28006 6.67534 7.54005 6.53034C7.74638 6.48952 7.95871 6.48952 8.16505 6.53034C8.28004 6.59034 9.59003 7.68034 10.23 8.21533C10.3801 8.08533 10.68 7.81533 10.71 7.77532C10.745 7.72533 11.0451 8.01032 10.985 8.21533C10.935 8.37532 10.8701 8.66532 10.84 8.78532C11.12 9.14532 11.65 10.0854 11.54 10.9603H10.71V9.62033C10.575 9.2694 10.3247 8.97493 9.99997 8.78532C10.2092 9.40532 10.3304 10.0516 10.36 10.7053L10.535 10.9553C10.16 11.0503 9.31003 11.2703 8.93504 11.4403C9.07003 11.3253 9.35003 11.0753 9.35003 11.0253C9.35003 10.9604 8.74004 10.2903 8.40004 10.2753C8.12005 10.2653 7.24506 10.3903 6.84005 10.4553C6.39507 10.8453 5.44007 11.8653 5.18507 12.8353V13.1052L6.03506 14.0553L5.03508 13.3452C4.86008 13.7603 4.63008 15.0702 4.70008 15.3852C4.79008 15.7752 6.72506 17.1602 7.06006 17.2702C7.32505 17.3653 7.08505 17.4602 6.93006 17.5003C6.18507 17.1853 4.60508 16.3153 4.21508 15.3852C4.21508 14.9252 4.31509 13.8052 4.70008 12.9753C4.50617 12.7298 4.32751 12.4727 4.16509 12.2053C4.15509 12.1403 4.45008 10.2254 4.60008 9.27535H4.28009C3.76509 9.67528 2.7001 10.5754 2.54511 10.9603C2.35511 11.4403 2.38011 14.4953 2.4201 14.6102C2.45011 14.7003 2.52011 15.0053 2.54511 15.1453C2.3751 15.0203 2.03011 14.7452 2.0101 14.6102C1.99011 14.4803 2.00511 12.3003 2.0101 11.2253C2.14511 10.9302 2.47511 10.2753 2.7401 10.0353L2.9251 9.86533C3.3101 9.52536 3.91009 8.98532 4.11509 8.63032H4.86508L4.90008 8.53033V8.52532ZM5.20008 8.67032C5.38008 8.40032 5.78007 7.85533 5.97007 7.79533C6.07006 7.76533 6.38006 7.62034 6.72006 7.46533C7.19005 7.24534 7.72005 7.00034 7.78504 7.01534C7.87005 7.03534 8.70004 7.73033 9.10503 8.07533C8.82503 8.10033 8.22505 8.13033 8.03004 8.07533C7.95004 8.05033 7.83005 8.00033 7.68004 7.94032C7.37506 7.81032 6.98506 7.65033 6.85506 7.69033C6.70506 7.74033 6.02506 8.36032 5.70507 8.67032H5.20008ZM6.19006 8.67032C6.39027 8.54475 6.58081 8.40435 6.76006 8.25033C6.78006 8.21533 6.87505 8.29032 6.99006 8.37033C7.10506 8.46033 7.24005 8.56032 7.32505 8.56032C7.45505 8.56032 8.12504 8.63532 8.44504 8.67032C8.51504 8.74032 8.52504 8.88532 8.03004 8.90532C7.40505 8.93032 6.41506 8.77532 6.19006 8.67032ZM9.84002 10.3503C9.74004 9.35527 9.13504 8.90532 8.84004 8.80532C8.79504 8.96032 8.74004 9.28527 8.84004 9.34535C9.19 9.66163 9.52375 9.99529 9.84002 10.3453V10.3503ZM4.92008 9.83534C5.12008 9.45537 5.66008 8.88032 6.19006 9.58533C6.81506 9.52536 8.08505 9.4353 8.17504 9.58533C8.27004 9.74528 8.35505 9.92529 8.39005 9.99529C8.09457 9.85984 7.76863 9.80466 7.44506 9.83534C7.13006 9.90033 5.92507 10.5503 5.36508 10.8703V11.5453C5.21508 11.7702 4.92008 12.2602 4.92008 12.4103C4.80008 12.2903 4.55508 12.0253 4.57008 11.9203C4.58008 11.8203 4.81007 10.4853 4.92008 9.83534ZM10.195 12.0103C10.32 11.8953 10.7651 11.6903 11.575 11.7553V12.5853C11.5001 12.4453 11.27 12.1603 10.985 12.1503V12.9353C11.035 12.9753 11.155 13.0103 11.2201 12.8202L11.2901 13.4003C11.2 13.3502 11.015 13.2703 10.985 13.3303C10.945 13.4003 10.86 14.0703 11.2201 14.0703C11.505 14.0703 11.575 13.8702 11.575 13.7702V14.6102C11.2337 14.4668 10.8732 14.3742 10.505 14.3352V12.3003C10.515 12.2003 10.475 12.0103 10.195 12.0103ZM14.825 11.9353C14.4302 11.909 14.0354 11.9865 13.6799 12.1603C13.79 12.1603 13.835 12.2803 13.845 12.3453V14.2053L13.545 14.6553H14.4099L14.315 14.4052V13.7753C14.6249 13.8002 14.7 13.9503 14.6949 14.0253V15.4253C14.8349 15.1603 15.13 14.5303 15.165 14.1303C15.195 13.7302 14.955 13.5103 14.825 13.4502C15.2849 13.2903 15.375 12.8303 15.37 12.6203C15.3599 12.4203 15.235 12.0003 14.825 11.9353ZM14.2749 13.3603V12.5752C14.71 12.4403 14.85 12.6353 14.8699 12.7502C14.8349 13.2203 14.46 13.3502 14.2749 13.3603ZM9.89007 11.9153C9.70002 11.8903 8.90503 12.0753 8.53005 12.1703L8.85504 12.4203C8.83503 13.9203 9.17004 14.7852 9.34003 15.0252C9.31503 14.5853 9.29003 13.6853 9.34003 13.5952C9.39003 13.5053 9.64002 13.6302 9.75497 13.7053L9.60502 13.0253C9.60502 13.1553 9.42503 13.1853 9.34003 13.1853V12.5052C9.34003 12.4253 9.43002 12.3853 9.60502 12.4253C9.74506 12.4553 9.89999 12.5453 9.96007 12.5853C10.015 12.3753 10.08 11.9403 9.89007 11.9153ZM11.9551 13.9903V14.5402L12.385 14.4553C12.385 14.2552 12.465 13.8453 12.795 13.8803C13.12 13.9102 13.135 14.3652 13.1 14.5903L13.385 13.8803L13.48 12.0103L13.6799 11.8052H12.3799L12.65 11.9452L11.9551 13.9903ZM12.995 13.3303H12.6599L13.13 12.2903L12.995 13.3303ZM18.18 7.27533C18.7249 7.48034 18.9599 8.13533 19.0999 8.52532L19.1349 8.63032H19.8849C20.0849 8.98032 20.6899 9.52536 21.0749 9.86533L21.2599 10.0353C21.5249 10.2803 21.8599 10.9353 21.9899 11.2253C21.9949 12.3003 22.0099 14.4752 21.9899 14.6102C21.9698 14.7403 21.6249 15.0203 21.4549 15.1453L21.5799 14.6102C21.6198 14.4953 21.6449 11.4403 21.4549 10.9603C21.3049 10.5703 20.2349 9.67528 19.7199 9.27535H19.3999C19.55 10.2254 19.8449 12.1403 19.8349 12.2053C19.6725 12.4727 19.4939 12.7298 19.3 12.9753C19.685 13.8052 19.7849 14.9252 19.7849 15.3852C19.3949 16.3153 17.8149 17.1853 17.0699 17.5003C16.92 17.4602 16.675 17.3653 16.9399 17.2702C17.275 17.1602 19.305 15.7002 19.3899 15.3052C19.4649 14.9902 19.1399 13.7603 18.9699 13.3452L17.9599 14.0553L18.815 13.1052V12.8353C18.5599 11.8653 17.6049 10.8453 17.16 10.4553C16.7549 10.3903 15.8799 10.2653 15.6049 10.2753C15.2549 10.2903 14.65 10.9604 14.65 11.0253C14.65 11.0753 14.93 11.3253 15.07 11.4403C14.6899 11.2703 13.84 11.0503 13.4649 10.9603L13.6399 10.7103C13.6692 10.0549 13.7904 9.40695 14 8.78532C13.6754 8.97493 13.4249 9.2694 13.2899 9.62033V10.9603H12.465C12.35 10.0803 12.88 9.14532 13.16 8.78532L13.015 8.21533C12.955 8.01533 13.2549 7.72533 13.2899 7.77532C13.32 7.81032 13.625 8.08533 13.77 8.21533C14.4099 7.67533 15.72 6.59034 15.835 6.53034C15.9499 6.47535 16.2999 6.51034 16.46 6.53034C16.7199 6.67534 17.585 7.04534 18.18 7.27533ZM18.0299 7.79533C18.22 7.85533 18.6199 8.40032 18.7999 8.67032H18.2999C17.945 8.30975 17.5585 7.98176 17.1449 7.69033C17.0149 7.65033 16.6249 7.81032 16.315 7.94032C16.175 8.00033 16.05 8.05033 15.97 8.07533C15.77 8.13033 15.17 8.10033 14.895 8.07533C15.3 7.72533 16.1299 7.03534 16.215 7.01534C16.28 7.00034 16.81 7.24534 17.2849 7.46533C17.62 7.62034 17.935 7.76533 18.0299 7.79533ZM17.24 8.25033C17.2799 8.31033 17.6399 8.55032 17.8099 8.67032C17.585 8.77032 16.595 8.93032 15.97 8.90532C15.4699 8.88532 15.485 8.74032 15.555 8.67032C15.875 8.63532 16.5449 8.56032 16.675 8.56032C16.7599 8.56032 16.8949 8.46033 17.0099 8.37033C17.125 8.29032 17.2199 8.22032 17.24 8.25033ZM15.16 8.80532C14.8649 8.90532 14.26 9.35527 14.16 10.3503C14.4761 9.99868 14.8099 9.66326 15.16 9.34535C15.2599 9.28527 15.205 8.96032 15.16 8.80532ZM17.8099 9.59035C18.3399 8.88032 18.8749 9.45537 19.0799 9.83534C19.1899 10.4853 19.4199 11.8153 19.4299 11.9203C19.445 12.0253 19.2 12.2903 19.0799 12.4103C19.0799 12.2602 18.78 11.7702 18.635 11.5453V10.8703C18.075 10.5503 16.8699 9.90033 16.5549 9.83534C16.2314 9.80466 15.9055 9.85984 15.6099 9.99529C15.6449 9.92529 15.73 9.74528 15.825 9.59035C15.9149 9.4353 17.1849 9.52536 17.8099 9.59035Z" fill="white"/>
</svg>

<svg xmlns="http://www.w3.org/2000/svg" width="24" height="24" fill="none" viewBox="0 0 24 24">
    <path fill="#fff" fill-rule="evenodd" d="M4.9 8.525c.14-.39.375-1.045.92-1.25.595-.23 1.46-.6 1.72-.745.206-.04.419-.04.625 0 .115.06 1.425 1.15 2.065 1.685.15-.13.45-.4.48-.44.035-.05.335.235.275.44-.05.16-.115.45-.145.57.28.36.81 1.3.7 2.175h-.83V9.62a1.66 1.66 0 0 0-.71-.835c.21.62.33 1.267.36 1.92l.175.25c-.375.095-1.225.315-1.6.485.135-.115.415-.365.415-.415 0-.065-.61-.735-.95-.75-.28-.01-1.155.115-1.56.18-.445.39-1.4 1.41-1.655 2.38v.27l.85.95-1-.71c-.175.415-.405 1.725-.335 2.04.09.39 2.025 1.775 2.36 1.885.265.095.025.19-.13.23-.745-.315-2.325-1.185-2.715-2.115 0-.46.1-1.58.485-2.41a8 8 0 0 1-.535-.77c-.01-.065.285-1.98.435-2.93h-.32c-.515.4-1.58 1.3-1.735 1.685-.19.48-.165 3.535-.125 3.65.03.09.1.395.125.535-.17-.125-.515-.4-.535-.535-.02-.13-.005-2.31 0-3.385.135-.295.465-.95.73-1.19l.185-.17c.385-.34.985-.88 1.19-1.235h.75l.035-.1zm.3.145c.18-.27.58-.815.77-.875.1-.03.41-.175.75-.33.47-.22 1-.465 1.065-.45.085.02.915.715 1.32 1.06-.28.025-.88.055-1.075 0-.08-.025-.2-.075-.35-.135-.305-.13-.695-.29-.825-.25-.15.05-.83.67-1.15.98zm.99 0q.3-.188.57-.42c.02-.035.115.04.23.12.115.09.25.19.335.19.13 0 .8.075 1.12.11.07.07.08.215-.415.235-.625.025-1.615-.13-1.84-.235m3.65 1.68c-.1-.995-.705-1.445-1-1.545-.045.155-.1.48 0 .54q.525.475 1 1zm-4.92-.515c.2-.38.74-.955 1.27-.25.625-.06 1.895-.15 1.985 0 .095.16.18.34.215.41a1.85 1.85 0 0 0-.945-.16c-.315.065-1.52.715-2.08 1.035v.675c-.15.225-.445.715-.445.865-.12-.12-.365-.385-.35-.49.01-.1.24-1.435.35-2.085m5.275 2.175c.125-.115.57-.32 1.38-.255v.83c-.075-.14-.305-.425-.59-.435v.785c.05.04.17.075.235-.115l.07.58c-.09-.05-.275-.13-.305-.07-.04.07-.125.74.235.74.285 0 .355-.2.355-.3v.84a3.8 3.8 0 0 0-1.07-.275V12.3c.01-.1-.03-.29-.31-.29m4.63-.075a2.26 2.26 0 0 0-1.145.225c.11 0 .155.12.165.185v1.86l-.3.45h.865l-.095-.25v-.63c.31.025.385.175.38.25v1.4c.14-.265.435-.895.47-1.295.03-.4-.21-.62-.34-.68.46-.16.55-.62.545-.83-.01-.2-.135-.62-.545-.685m-.55 1.425v-.785c.435-.135.575.06.595.175-.035.47-.41.6-.595.61M9.89 11.915c-.19-.025-.985.16-1.36.255l.325.25c-.02 1.5.315 2.365.485 2.605-.025-.44-.05-1.34 0-1.43s.3.035.415.11l-.15-.68c0 .13-.18.16-.265.16v-.68c0-.08.09-.12.265-.08.14.03.295.12.355.16.055-.21.12-.645-.07-.67m2.065 2.075v.55l.43-.085c0-.2.08-.61.41-.575.325.03.34.485.305.71l.285-.71.095-1.87.2-.205h-1.3l.27.14zm1.04-.66h-.335l.47-1.04zm5.185-6.055c.545.205.78.86.92 1.25l.035.105h.75c.2.35.805.895 1.19 1.235l.185.17c.265.245.6.9.73 1.19.005 1.075.02 3.25 0 3.385-.02.13-.365.41-.535.535l.125-.535c.04-.115.065-3.17-.125-3.65-.15-.39-1.22-1.285-1.735-1.685h-.32c.15.95.445 2.865.435 2.93a8 8 0 0 1-.535.77c.385.83.485 1.95.485 2.41-.39.93-1.97 1.8-2.715 2.115-.15-.04-.395-.135-.13-.23.335-.11 2.365-1.57 2.45-1.965.075-.315-.25-1.545-.42-1.96l-1.01.71.855-.95v-.27c-.255-.97-1.21-1.99-1.655-2.38-.405-.065-1.28-.19-1.555-.18-.35.015-.955.685-.955.75 0 .05.28.3.42.415-.38-.17-1.23-.39-1.605-.48l.175-.25A7 7 0 0 1 14 8.785c-.325.19-.575.484-.71.835v1.34h-.825c-.115-.88.415-1.815.695-2.175l-.145-.57c-.06-.2.24-.49.275-.44.03.035.335.31.48.44.64-.54 1.95-1.625 2.065-1.685.115-.055.465-.02.625 0 .26.145 1.125.515 1.72.745m-.15.52c.19.06.59.605.77.875h-.5a8.5 8.5 0 0 0-1.155-.98c-.13-.04-.52.12-.83.25-.14.06-.265.11-.345.135-.2.055-.8.025-1.075 0 .405-.35 1.235-1.04 1.32-1.06.065-.015.595.23 1.07.45.335.155.65.3.745.33m-.79.455c.04.06.4.3.57.42-.225.1-1.215.26-1.84.235-.5-.02-.485-.165-.415-.235.32-.035.99-.11 1.12-.11.085 0 .22-.1.335-.19.115-.08.21-.15.23-.12m-2.08.555c-.295.1-.9.55-1 1.545q.475-.527 1-1.005c.1-.06.045-.385 0-.54m2.65.785c.53-.71 1.065-.135 1.27.245.11.65.34 1.98.35 2.085.015.105-.23.37-.35.49 0-.15-.3-.64-.445-.865v-.675c-.56-.32-1.765-.97-2.08-1.035a1.85 1.85 0 0 0-.945.16c.035-.07.12-.25.215-.405.09-.155 1.36-.065 1.985 0" clip-rule="evenodd"/>
</svg>
